school/img/menu/6.svg

<svg width="54" height="56" viewBox="0 0 54 56" fill="none" xmlns="http://www.w3.org/2000/svg">
<path d="M4.54223 0.0215607C4.49481 0.0301552 4.34823 0.0602417 4.2189 0.0860329C3.65845 0.193485 2.92556 0.502953 2.41685 0.851105C1.93832 1.17776 1.32614 1.89555 1.03298 2.47581C0.770006 3.00018 0.675162 3.36552 0.653606 3.95007C0.63205 4.40568 0.644984 4.54752 0.718273 4.84409C0.955384 5.77679 1.55032 6.50318 2.42979 6.94159C2.80054 7.12211 3.38254 7.30264 3.60241 7.30264C3.69294 7.30264 3.65414 7.35851 3.3265 7.72385C1.76587 9.45601 0.770006 11.2011 0.313028 12.9848C-0.424173 15.886 0.136272 19.3117 2.04179 23.5926C2.52032 24.6672 2.93419 25.5096 3.6369 26.8377C8.02561 35.1676 9.53019 40.983 9.21979 48.4274C9.17237 49.5664 9.04304 51.3243 8.93526 52.3688C8.84042 53.2972 8.84473 53.4691 8.97837 53.6926C9.03873 53.7958 9.20255 53.9892 9.34913 54.1224C10.8278 55.4892 13.6947 55.27 17.9714 53.4648C18.424 53.2757 19.075 52.9834 19.4285 52.8158C19.7777 52.6482 20.17 52.459 20.2994 52.3989C20.4287 52.3387 20.9245 52.0851 21.3987 51.8401C29.4174 47.6666 40.4193 39.5302 47.7138 32.3824C51.2316 28.9352 53.3139 26.236 53.8657 24.4222C54.0252 23.9021 54.0382 23.1714 53.8916 22.8276C53.8398 22.7029 53.7967 22.5525 53.7967 22.4966C53.7967 22.0496 53.2277 21.5983 52.5508 21.5123C52.4258 21.4951 52.068 21.3963 51.7533 21.2931C50.9816 21.0395 49.99 20.7215 49.1623 20.4636C44.6313 19.0452 43.1397 18.5423 41.3678 17.8374C38.4492 16.6726 36.1815 15.3746 33.9225 13.5736C33.0603 12.8859 32.2584 12.1681 31.0944 11.0377C27.7878 7.82271 24.7915 5.54469 21.9893 4.1306C20.1226 3.185 18.5318 2.65633 16.7729 2.39844C16.0055 2.28669 14.5742 2.24371 13.7896 2.31248C12.0824 2.46291 10.2372 2.97009 8.50846 3.76096C8.48259 3.77385 8.46535 3.60192 8.46104 3.29675C8.46104 2.7079 8.38344 2.39414 8.12477 1.86547C7.53846 0.687775 6.34428 -0.0171242 4.97334 6.86646e-05C4.78366 0.00436783 4.58966 0.0129623 4.54223 0.0215607Z" fill="#0357ED"/>
</svg>

<svg width="54" height="56" fill="none" xmlns="http://www.w3.org/2000/svg"><path d="M4.542.022C4.495.03 4.348.06 4.22.086c-.56.107-1.293.417-1.802.765-.479.327-1.09 1.045-1.384 1.625C.77 3 .675 3.366.653 3.95c-.021.456-.008.598.065.894.237.933.832 1.66 1.712 2.098.37.18.953.36 1.172.36.09 0 .052.057-.276.422C1.766 9.456.77 11.2.313 12.984c-.737 2.902-.177 6.328 1.729 10.609a48.566 48.566 0 001.595 3.245c4.389 8.33 5.893 14.145 5.583 21.59a77.67 77.67 0 01-.285 3.94c-.095.93-.09 1.101.043 1.325.06.103.225.296.371.43 1.479 1.366 4.346 1.147 8.622-.658.453-.19 1.104-.482 1.457-.65.35-.167.742-.356.871-.416.13-.06.625-.314 1.1-.559 8.018-4.173 19.02-12.31 26.315-19.458 3.518-3.447 5.6-6.146 6.152-7.96.16-.52.172-1.25.026-1.594a1.249 1.249 0 01-.095-.331c0-.447-.57-.899-1.246-.985a6.748 6.748 0 01-.798-.219 190.04 190.04 0 00-2.59-.83c-4.532-1.418-6.023-1.92-7.795-2.626-2.919-1.164-5.187-2.462-7.446-4.263-.862-.688-1.664-1.406-2.828-2.536-3.306-3.215-6.303-5.493-9.105-6.907-1.866-.946-3.457-1.475-5.216-1.733-.767-.111-2.199-.154-2.983-.086-1.708.15-3.553.658-5.282 1.449-.025.013-.043-.16-.047-.464 0-.59-.078-.903-.336-1.432C7.538.688 6.345-.017 4.973 0a5.13 5.13 0 00-.43.022z" fill="#0357ED"/></svg>
